public/assets/techs/html.svg

<svg width="20" height="20" viewBox="0 0 20 20" fill="none" xmlns="http://www.w3.org/2000/svg">
<path d="M1.60001 0.199997L3.12801 17.844L9.99001 19.8L16.87 17.844L18.4 0.199997H1.60001ZM15.558 16.76L9.99001 18.344L4.44001 16.76L3.12601 1.6H16.872L15.558 16.76Z" fill="#EEEEEE"/>
<path d="M5.27401 10.35H12.58L12.336 13.15L10 13.794L7.64801 13.152L7.49801 11.442H5.38601L5.68201 14.826L10 16.044L14.308 14.82L14.9 8.20599H7.20001L7.02601 5.97399H15.076L15.26 3.79999L4.72601 3.79399L5.27401 10.35Z" fill="#EEEEEE"/>
</svg>

<svg xmlns="http://www.w3.org/2000/svg" width="20" height="20" fill="#e44f26" xmlns:v="https://vecta.io/nano"><path d="M1.6.2l1.528 17.644L9.99 19.8l6.88-1.956L18.4.2H1.6zm13.958 16.56L9.99 18.344 4.44 16.76 3.126 1.6h13.746l-1.314 15.16zM5.274 10.35h7.306l-.244 2.8-2.336.644-2.352-.642-.15-1.71H5.386l.296 3.384L10 16.044l4.308-1.224.592-6.614H7.2l-.174-2.232h8.05L15.26 3.8 4.726 3.794l.548 6.556z"/></svg>
